public/images/3.svg

<svg width="55" height="132" viewBox="0 0 55 132" fill="none" xmlns="http://www.w3.org/2000/svg">
<path id="3" d="M21.9001 55.8398C27.4201 55.8398 31.2001 55.1798 33.2401 53.8598C35.4001 52.5398 36.4801 49.4798 36.4801 44.6798V28.1198C36.4801 25.4798 35.6401 23.3198 33.9601 21.6398C32.4001 19.9598 30.2401 19.1198 27.4801 19.1198C24.2401 19.1198 21.9001 20.1398 20.4601 22.1798C19.1401 24.2198 18.4801 26.1998 18.4801 28.1198V38.5598H0.120117V27.9398C0.120117 24.2198 0.840117 20.6798 2.28012 17.3198C3.72012 13.9598 5.70012 11.0798 8.22012 8.67977C10.7401 6.27977 13.6801 4.35977 17.0401 2.91977C20.4001 1.47977 24.0001 0.759766 27.8401 0.759766C32.8801 0.759766 37.0201 1.77977 40.2601 3.81977C43.6201 5.73977 46.1401 7.71977 47.8201 9.75977C49.0201 11.1998 50.0401 12.6398 50.8801 14.0798C51.8401 15.5198 52.6201 17.2598 53.2201 19.2998C54.3001 23.2598 54.8401 29.1398 54.8401 36.9398C54.8401 41.3798 54.7201 44.9798 54.4801 47.7398C54.3601 50.4998 53.9401 52.7798 53.2201 54.5798C52.3801 56.4998 51.1801 58.1198 49.6201 59.4398C48.1801 60.7598 46.1401 62.1998 43.5001 63.7598C46.3801 65.5598 48.5401 67.2398 49.9801 68.7998C51.5401 70.3598 52.6801 72.1598 53.4001 74.1998C54.1201 76.3598 54.5401 78.9398 54.6601 81.9398C54.7801 84.8198 54.8401 88.5398 54.8401 93.0998C54.8401 97.2998 54.7201 100.78 54.4801 103.54C54.3601 106.3 54.1201 108.58 53.7601 110.38C53.4001 112.3 52.9201 113.92 52.3201 115.24C51.7201 116.56 50.9401 117.94 49.9801 119.38C47.7001 122.74 44.7601 125.56 41.1601 127.84C37.6801 130 33.0601 131.08 27.3001 131.08C24.4201 131.08 21.3601 130.6 18.1201 129.64C14.8801 128.68 11.9401 127.12 9.30012 124.96C6.66012 122.8 4.44012 119.98 2.64012 116.5C0.960117 113.02 0.120117 108.76 0.120117 103.72V93.2798H18.4801V102.82C18.4801 105.7 19.2601 108.1 20.8201 110.02C22.5001 111.82 24.7201 112.72 27.4801 112.72C30.2401 112.72 32.4001 111.82 33.9601 110.02C35.6401 108.1 36.4801 105.58 36.4801 102.46V84.0998C36.4801 79.0598 35.5201 75.7598 33.6001 74.1998C32.5201 73.2398 31.0201 72.6398 29.1001 72.3998C27.3001 72.1598 24.9001 72.0398 21.9001 72.0398V55.8398Z" fill="#2D78E8" fill-opacity="0.11"/>
</svg>

<svg xmlns="http://www.w3.org/2000/svg" width="55" height="132" fill="none"><path fill="#2D78E8" fill-opacity=".11" d="M21.9 55.84c5.52 0 9.3-.66 11.34-1.98 2.16-1.32 3.24-4.38 3.24-9.18V28.12c0-2.64-.84-4.8-2.52-6.48-1.56-1.68-3.72-2.52-6.48-2.52-3.24 0-5.58 1.02-7.02 3.06-1.32 2.04-1.98 4.02-1.98 5.94v10.44H.12V27.94c0-3.72.72-7.26 2.16-10.62 1.44-3.36 3.42-6.24 5.94-8.64 2.52-2.4 5.46-4.32 8.82-5.76C20.4 1.48 24 .76 27.84.76c5.04 0 9.18 1.02 12.42 3.06 3.36 1.92 5.88 3.9 7.56 5.94a31.83 31.83 0 0 1 3.06 4.32c.96 1.44 1.74 3.18 2.34 5.22 1.08 3.96 1.62 9.84 1.62 17.64 0 4.44-.12 8.04-.36 10.8-.12 2.76-.54 5.04-1.26 6.84-.84 1.92-2.04 3.54-3.6 4.86-1.44 1.32-3.48 2.76-6.12 4.32 2.88 1.8 5.04 3.48 6.48 5.04 1.56 1.56 2.7 3.36 3.42 5.4.72 2.16 1.14 4.74 1.26 7.74.12 2.88.18 6.6.18 11.16 0 4.2-.12 7.68-.36 10.44-.12 2.76-.36 5.04-.72 6.84-.36 1.92-.84 3.54-1.44 4.86-.6 1.32-1.38 2.7-2.34 4.14-2.28 3.36-5.22 6.18-8.82 8.46-3.48 2.16-8.1 3.24-13.86 3.24-2.88 0-5.94-.48-9.18-1.44-3.24-.96-6.18-2.52-8.82-4.68-2.64-2.16-4.86-4.98-6.66-8.46-1.68-3.48-2.52-7.74-2.52-12.78V93.28h18.36v9.54c0 2.88.78 5.28 2.34 7.2 1.68 1.8 3.9 2.7 6.66 2.7 2.76 0 4.92-.9 6.48-2.7 1.68-1.92 2.52-4.44 2.52-7.56V84.1c0-5.04-.96-8.34-2.88-9.9-1.08-.96-2.58-1.56-4.5-1.8-1.8-.24-4.2-.36-7.2-.36v-16.2Z"/></svg>
